X:27
T:Foote's. ThoH.027
Q:1/2=90
M:3/2
L:1/8
B:Thompson's Compleat Collection of 120 Favourite Hornpipes.
Z:Village Music Project, Simon Wilson 2016
O:England.
K:A
A4c2BA BGE2|GABc dBcAG4|EGB2Ace2dfed|cBcAE2G2A4:|
|:A4cecA dfdB|GEGB dfedc4|dcde fgag fe^de|B^dfa gfed e4-|
yeagf edcBc2A2|defe dcBAG4|EGB2Ace2dfed|cBcAE2G2A4:|

